lib/svgs/team-medal.svg

<?xml version="1.0" encoding="UTF-8" standalone="no"?>
<svg width="20px" height="20px" viewBox="0 0 20 20" version="1.1" xmlns="http://www.w3.org/2000/svg" xmlns:xlink="http://www.w3.org/1999/xlink">
    <defs></defs>
    <g id="Icons" stroke="none" stroke-width="1" fill="none" fill-rule="evenodd">
        <g id="Web" transform="translate(-289.000000, -2442.000000)" fill="#000000">
            <g id="team/team-medal" transform="translate(289.000000, 2442.000000)">
                <path d="M5.1875,10.6875 L3,15.3125 L6,14.875 L7.5625,17.5 L9.5625,13 C7.75,12.9375 6.1875,12.0625 5.1875,10.6875 M14.1875,10.6875 C13.1875,12 11.625,12.9375 9.8125,12.9375 L11.8125,17.4375 L13.375,14.8125 L16.375,15.25 L14.1875,10.6875 M9.6875,3 C7.25,3 5.3125,4.9375 5.3125,7.375 C5.3125,9.8125 7.25,11.75 9.6875,11.75 C12.125,11.75 14.0625,9.8125 14.0625,7.375 C14.0625,4.9375 12.125,3 9.6875,3 M9.6875,8.625 C9,8.625 8.4375,8.0625 8.4375,7.375 C8.4375,6.6875 9,6.125 9.6875,6.125 C10.375,6.125 10.9375,6.6875 10.9375,7.375 C10.9375,8.0625 10.375,8.625 9.6875,8.625" id="Shape"></path>
            </g>
        </g>
    </g>
</svg>

<svg xmlns="http://www.w3.org/2000/svg" viewBox="0 0 20 20">
    <path fill="#000" fill-rule="evenodd" d="M5.188 10.688L3 15.311l3-.437L7.563 17.5l2-4.5a5.588 5.588 0 0 1-4.376-2.313m9 0a5.53 5.53 0 0 1-4.374 2.25l2 4.5 1.562-2.625 3 .438-2.188-4.563M9.688 3a4.348 4.348 0 0 0-4.374 4.375 4.348 4.348 0 0 0 4.375 4.375 4.348 4.348 0 0 0 4.374-4.375A4.348 4.348 0 0 0 9.689 3m0 5.625c-.688 0-1.25-.563-1.25-1.25 0-.688.562-1.25 1.25-1.25.687 0 1.25.563 1.25 1.25 0 .688-.563 1.25-1.25 1.25"/>
</svg>
